icon/gr/map.svg

<svg xmlns="http://www.w3.org/2000/svg" viewBox="0 0 24 24" height="1em" width="1em">
  <path fill="none" stroke="#000" stroke-width="2" d="M15,15 L19,15 L22,22 L2,22 L5,15 L9,15 M13,8 C13,8.5525 12.5525,9 12,9 C11.4475,9 11,8.5525 11,8 C11,7.4475 11.4475,7 12,7 C12.5525,7 13,7.4475 13,8 M6,8 C6,13 12,18 12,18 C12,18 18,13 18,8 C18,4.58317221 15.3135725,2 12,2 C8.68642746,2 6,4.58317221 6,8 Z"/>
</svg>

<svg xmlns="http://www.w3.org/2000/svg" width="24" height="24"><path fill="none" stroke="#000" stroke-width="2" d="M15 15h4l3 7H2l3-7h4m4-7a1 1 0 1 1-2 0 1 1 0 0 1 2 0M6 8c0 5 6 10 6 10s6-5 6-10c0-3.417-2.686-6-6-6S6 4.583 6 8Z"/></svg>
